lib/logo_tmp/nrk-logo-nrk-sport-symbol.svg

<svg xmlns="http://www.w3.org/2000/svg" viewBox="0 0 26 26"><path fill="#000" d="M13.152.5C20.076.5 25.5 6.217 25.5 13.162c0 6.935-5.82 12.338-12.661 12.338C5.924 25.5.5 19.691.5 12.885.5 5.94 6.237.5 13.152.5Zm.59 6.52c-.406 0-.82.268-.82.831 0 .388.258.813.828.813a.787.787 0 0 0 .802-.785c0-.49-.323-.859-.81-.859Zm-2.386.148v4.119c0 .055 0 .055.037.055h1.354c.037 0 .037 0 .037-.055v-4.12c0-.045 0-.045-.037-.045h-1.354c-.037 0-.037 0-.037.046ZM8.76 7.122c-.046 0-.046 0-.046.046l.93 4.119c.009.055.046.055.046.055h1.482c.046 0 .046-.055.046-.055l-.792-3.473c-.083-.424-.377-.692-.782-.692H8.76Zm-1.612.046v4.119c0 .055 0 .055.046.055h1.437v-4.22H7.194c-.046 0-.046 0-.046.046ZM6.025 17.752c1.132 0 1.823-.61 1.823-1.58 0-1.607-2.1-1.274-2.1-2.133 0-.277.194-.499.664-.499.138 0 .248.028.414.083l.138.471h.746V13.07a2.449 2.449 0 0 0-1.326-.36c-.967 0-1.768.471-1.768 1.413 0 1.773 2.127 1.247 2.127 2.244 0 .36-.22.554-.663.554a1.5 1.5 0 0 1-.552-.11l-.166-.555h-.746v1.22c.387.193.856.277 1.409.277v-.001Zm4.512-3.796c-.415 0-.801.222-1.022.526h-.028l-.138-.415H8.133v.582l.36.11v3.713l-.36.11v.555h2.045v-.554l-.636-.166v-1.053c.138.166.442.388.912.388.884 0 1.436-.638 1.436-1.968 0-1.357-.58-1.828-1.353-1.828Zm-.387 2.937c-.193 0-.47-.111-.552-.167v-1.662c.11-.11.386-.194.607-.194.36 0 .58.25.58.998s-.248 1.025-.635 1.025Zm4.033-2.937c-1.105 0-1.823.61-1.823 1.94 0 1.218.663 1.856 1.74 1.856 1.05 0 1.824-.61 1.824-1.912 0-1.33-.719-1.884-1.74-1.884h-.001Zm-.027 2.964c-.442 0-.691-.277-.691-1.08 0-.776.276-1.025.69-1.025.36 0 .636.221.636 1.025 0 .803-.276 1.08-.635 1.08Zm1.961-5.633v-4.12c0-.045-.037-.045-.037-.045h-1.409s-.037 0-.037.046v4.119c0 .055.037.055.037.055h1.41s.036 0 .036-.055Zm2.67 3.805.056-1.025s-.166-.028-.36-.028c-.386 0-.718.166-.911.637h-.028l-.138-.61h-1.16v.583l.387.11v2.245l-.387.11v.554h2.072v-.554l-.636-.138v-1.607c.11-.166.415-.305.719-.305.11 0 .248 0 .386.028Zm.277-3.75s.046-.009.009-.055l-1.114-1.875c-.102-.166-.11-.203-.046-.35l1.16-1.894c.009-.028 0-.046-.028-.046h-1.528c-.065 0-.083.046-.083.046l-1.013 1.69c-.194.314-.175.397-.028.674l1.05 1.783c.01.018.028.027.074.027h1.547Zm2.458 3.528v-.803h-.801v-.887h-.856l-.194.887h-.442l-.055.803h.442v1.967c0 .582.332.915 1.022.915.304 0 .663-.056.884-.139l-.11-.748c-.138.028-.249.055-.36.055-.276 0-.331-.083-.331-.304V14.87h.801Z"/></svg>

<svg width="26" height="26" viewBox="0 0 26 26" fill="none" xmlns="http://www.w3.org/2000/svg">
<path d="M13.152 0.5C20.076 0.5 25.5 6.217 25.5 13.162C25.5 20.097 19.68 25.5 12.839 25.5C5.924 25.5 0.5 19.691 0.5 12.885C0.5 5.94 6.237 0.5 13.152 0.5ZM13.742 7.02C13.336 7.02 12.922 7.288 12.922 7.851C12.922 8.239 13.18 8.664 13.75 8.664C13.8544 8.66599 13.9582 8.64717 14.0553 8.60864C14.1524 8.57011 14.2409 8.51263 14.3155 8.43956C14.3902 8.3665 14.4495 8.2793 14.4901 8.18306C14.5307 8.08682 14.5518 7.98346 14.552 7.879C14.552 7.389 14.229 7.02 13.742 7.02ZM11.356 7.168V11.287C11.356 11.342 11.356 11.342 11.393 11.342H12.747C12.784 11.342 12.784 11.342 12.784 11.287V7.167C12.784 7.122 12.784 7.122 12.747 7.122H11.393C11.356 7.122 11.356 7.122 11.356 7.168ZM8.76 7.122C8.714 7.122 8.714 7.122 8.714 7.168L9.644 11.287C9.653 11.342 9.69 11.342 9.69 11.342H11.172C11.218 11.342 11.218 11.287 11.218 11.287L10.426 7.814C10.343 7.39 10.049 7.122 9.644 7.122H8.76ZM7.148 7.168V11.287C7.148 11.342 7.148 11.342 7.194 11.342H8.631V7.122H7.194C7.148 7.122 7.148 7.122 7.148 7.168ZM6.025 17.752C7.157 17.752 7.848 17.142 7.848 16.172C7.848 14.565 5.748 14.898 5.748 14.039C5.748 13.762 5.942 13.54 6.412 13.54C6.55 13.54 6.66 13.568 6.826 13.623L6.964 14.094H7.71V13.07C7.31143 12.8259 6.8513 12.701 6.384 12.71C5.417 12.71 4.616 13.181 4.616 14.123C4.616 15.896 6.743 15.37 6.743 16.367C6.743 16.727 6.523 16.921 6.08 16.921C5.89071 16.9195 5.70341 16.8822 5.528 16.811L5.362 16.256H4.616V17.476C5.003 17.669 5.472 17.753 6.025 17.753V17.752ZM10.537 13.956C10.122 13.956 9.736 14.178 9.515 14.482H9.487L9.349 14.067H8.133V14.649L8.493 14.759V18.472L8.133 18.582V19.137H10.178V18.583L9.542 18.417V17.364C9.68 17.53 9.984 17.752 10.454 17.752C11.338 17.752 11.89 17.114 11.89 15.784C11.89 14.427 11.31 13.956 10.537 13.956ZM10.15 16.893C9.957 16.893 9.68 16.782 9.598 16.726V15.064C9.708 14.954 9.984 14.87 10.205 14.87C10.565 14.87 10.785 15.12 10.785 15.868C10.785 16.616 10.537 16.893 10.15 16.893ZM14.183 13.956C13.078 13.956 12.36 14.566 12.36 15.896C12.36 17.114 13.023 17.752 14.1 17.752C15.15 17.752 15.924 17.142 15.924 15.84C15.924 14.51 15.205 13.956 14.184 13.956H14.183ZM14.156 16.92C13.714 16.92 13.465 16.643 13.465 15.84C13.465 15.064 13.741 14.815 14.155 14.815C14.515 14.815 14.791 15.036 14.791 15.84C14.791 16.643 14.515 16.92 14.156 16.92ZM16.117 11.287V7.167C16.117 7.122 16.08 7.122 16.08 7.122H14.671C14.671 7.122 14.634 7.122 14.634 7.168V11.287C14.634 11.342 14.671 11.342 14.671 11.342H16.081C16.081 11.342 16.117 11.342 16.117 11.287ZM18.787 15.092L18.843 14.067C18.843 14.067 18.677 14.039 18.483 14.039C18.097 14.039 17.765 14.205 17.572 14.676H17.544L17.406 14.066H16.246V14.649L16.633 14.759V17.004L16.246 17.114V17.668H18.318V17.114L17.682 16.976V15.369C17.792 15.203 18.097 15.064 18.401 15.064C18.511 15.064 18.649 15.064 18.787 15.092ZM19.064 11.342C19.064 11.342 19.11 11.333 19.073 11.287L17.959 9.412C17.857 9.246 17.849 9.209 17.913 9.062L19.073 7.168C19.082 7.14 19.073 7.122 19.045 7.122H17.517C17.452 7.122 17.434 7.168 17.434 7.168L16.421 8.858C16.227 9.172 16.246 9.255 16.393 9.532L17.443 11.315C17.453 11.333 17.471 11.342 17.517 11.342H19.064ZM21.522 14.87V14.067H20.721V13.18H19.865L19.671 14.067H19.229L19.174 14.87H19.616V16.837C19.616 17.419 19.948 17.752 20.638 17.752C20.942 17.752 21.301 17.696 21.522 17.613L21.412 16.865C21.274 16.893 21.163 16.92 21.052 16.92C20.776 16.92 20.721 16.837 20.721 16.616V14.87H21.522Z" fill="black"/>
</svg>
